X: 1
T: Granny Quinn's
M: 4/4
L: 1/8
R: reel
K: Dmix
DFAd c2 AG|Ac c2 Ad d2|DFAd cege|fdeg fd d2 |
DFAd c2 AG|Ac c2 Ad d2|fd (3d^cd =cG (3GFG|EGcG ED D2 :|
fa a2 ec c2|defd cAGA|fa a2 ec c2|dBcG Ad d2 |
fa a2 ec c2|defd c3 A|dBcA BGAG|A,CEG FD D2 :|
